!!!!SEGMENT: Ano3010-La_rouse_du_moys_de_may_II.krn
!!!id: Ano3010
!!!jrpid: Mou3013
!!!AGN: Chanson
!!!voices: 6
!!!COM: Anonymous
!!!OTL: La rousé du moys de may II
**kern	**kern	**kern	**kern	**kern	**kern
*part6	*part5	*part4	*part3	*part2	*part1
*staff6	*staff5	*staff4	*staff3	*staff2	*staff1
*I"Bassus	*I"Tenor II	*I"Tenor I	*I"Altus	*I"Superius II	*I"Superius I
*I'B	*I'T. II	*I'T. I	*I'A	*I'S. II	*I'S. I
*clefF4	*clefGv2	*clefGv2	*clefGv2	*clefG2	*clefG2
*k[b-]	*k[b-]	*k[b-]	*k[b-]	*k[b-]	*k[b-]
*F:	*F:	*F:	*F:	*F:	*F:
*M2/1	*M2/1	*M2/1	*M2/1	*M2/1	*M2/1
*met(C|)	*met(C|)	*met(C|)	*met(C|)	*met(C|)	*met(C|)
0r	0r	0r	1.g	0r	1r
.	.	.	.	.	1g
.	.	.	2g	.	.
=1	=1	=1	=1	=1	=1
0r	0r	0r	2f	0r	1dd
.	.	.	2d	.	.
.	.	.	1f	.	1dd
=2	=2	=2	=2	=2	=2
1r	0r	0r	1e	0r	1cc
[1G	.	.	2d	.	1dd
.	.	.	[2B-y	.	.
=3	=3	=3	=3	=3	=3
2G]	0r	1G	4B-]	0r	1b-y
.	.	.	4c	.	.
2G	.	.	4d	.	.
.	.	.	4e	.	.
2F	.	1d	1f	.	2a
2D	.	.	.	.	[2f
=4	=4	=4	=4	=4	=4
1F	0r	1d	2r	0r	4f]
.	.	.	.	.	4g
.	.	.	2F	.	4a
.	.	.	.	.	4b-y
1E	.	1c	2.G	.	4cc
.	.	.	.	.	4b-y
.	.	.	.	.	4a
.	.	.	4A	.	4g
=5	=5	=5	=5	=5	=5
1D	2r	1d	4B-y	1r	2f
.	.	.	4F	.	.
.	1d	.	1f	.	1a
1r	.	1B-y	.	1d	.
.	2d	.	4e	.	2g
.	.	.	4d	.	.
=6	=6	=6	=6	=6	=6
0r	2c	1A	2e	1a	1.cc
.	2A	.	2c	.	.
.	1c	1r	1e	1a	.
.	.	.	.	.	4b-y
.	.	.	.	.	4a
=7	=7	=7	=7	=7	=7
1r	1B-y	0r	2.d	1g	1dd
.	.	.	4e	.	.
[1F	[1A	.	1f	1a	[1cc
=8	=8	=8	=8	=8	=8
2F]	2A]	1.c	1r	1f	0cc]
2F	4G	.	.	.	.
.	4F	.	.	.	.
2.C	2A	.	2r	1e	.
.	[2G	2c	[2g	.	.
4D	.	.	.	.	.
=9	=9	=9	=9	=9	=9
2E	4G]	2B-y	2g]	0r	0r
.	4A	.	.	.	.
2E	4B-y	2G	2g	.	.
.	4c	.	.	.	.
1D	1d	2B-y	2f	.	.
.	.	2B-y	2d	.	.
=10	=10	=10	=10	=10	=10
1D	2r	1A	2f	1r	0r
.	1d	.	2f	.	.
1r	.	1G	1e	[1g	.
.	2c	.	.	.	.
=11	=11	=11	=11	=11	=11
0r	2B-y	0r	0d	2g]	1.dd
.	2G	.	.	2g	.
.	2B-y	.	.	2f	.
.	2B-y	.	.	2d	2dd
=12	=12	=12	=12	=12	=12
2F	1A	2r	1r	2f	2cc
2F	.	1c	.	2f	2a
2C	1G	.	[1g	1e	2cc
2C	.	2c	.	.	2cc
=13	=13	=13	=13	=13	=13
2G	0r	2B-y	2g]	1d	4g
.	.	.	.	.	4a
2G	.	2G	2g	.	4b-y
.	.	.	.	.	4cc
1D	.	2B-y	2f	1r	[1dd
.	.	2B-y	2d	.	.
=14	=14	=14	=14	=14	=14
1D	2r	1A	2f	1r	1dd]
.	1d	.	2f	.	.
1r	.	[1G	1e	2r	1r
.	2c	.	.	[2g	.
=15	=15	=15	=15	=15	=15
0r	2B-y	1G]	0d	2g]	1.dd
.	2G	.	.	2g	.
.	2B-y	1r	.	2f	.
.	2B-y	.	.	2d	2dd
=16	=16	=16	=16	=16	=16
2F	1A	0r	2r	2f	2cc
2F	.	.	1c	2f	2a
2C	1G	.	.	1e	2cc
2C	.	.	2c	.	2cc
=17	=17	=17	=17	=17	=17
2G	0r	1r	2B-y	0d	2g
2G	.	.	2G	.	2.b-y
1G	.	2r	2B-y	.	.
.	.	.	.	.	4a
.	.	2G	2B-y	.	[2g
=18	=18	=18	=18	=18	=18
1D	2r	1d	1A	0r	4g]
.	.	.	.	.	8f#iL
.	.	.	.	.	8eJ
.	2D	.	.	.	2f#i
2r	1G	2d	2G	.	1g
2GG	.	2d	2d	.	.
=19	=19	=19	=19	=19	=19
2GG	2G	1B-y	1g	0r	0r
2GG	2G	.	.	.	.
2.C	1E	1c	2g	.	.
.	.	.	2g	.	.
4E	.	.	.	.	.
=20	=20	=20	=20	=20	=20
1D	1F	1d	1f	2r	1r
.	.	.	.	2d	.
[1D	4D	1r	1f	1a	2r
.	4E	.	.	.	.
.	4F	.	.	.	2a
.	4G	.	.	.	.
=21	=21	=21	=21	=21	=21
1D]	2A	0r	2d	2a	1dd
.	2F	.	2.f	2a	.
1r	[1B-y	.	.	1f	2dd
.	.	.	4e	.	.
.	.	.	4d	.	2dd
.	.	.	4c	.	.
=22	=22	=22	=22	=22	=22
0r	1B-]	0r	1d	1g	1b-y
.	1A	.	1e	1a	1cc
=23	=23	=23	=23	=23	=23
0r	1r	1G	1d	0r	0dd
.	2r	1d	1r	.	.
.	2D	.	.	.	.
=24	=24	=24	=24	=24	=24
1GG	1G	2d	2r	0r	0r
.	.	2d	2d	.	.
2GG	2G	1B-y	1g	.	.
2GG	2G	.	.	.	.
=25	=25	=25	=25	=25	=25
2.C	1E	1c	1g	1r	0r
4E	.	.	.	.	.
1D	1F	[1d	1f	1d	.
=26	=26	=26	=26	=26	=26
0D	4D	1d]	1f	1a	2r
.	4E	.	.	.	.
.	4F	.	.	.	2a
.	4G	.	.	.	.
.	2A	1r	2d	2a	1dd
.	2F	.	[2f	2a	.
=27	=27	=27	=27	=27	=27
0r	0B-y	0r	4f]	1f	2dd
.	.	.	4e	.	.
.	.	.	4d	.	2dd
.	.	.	4c	.	.
.	.	.	1d	1g	1b-y
=28	=28	=28	=28	=28	=28
2r	1A	0r	1e	0a	1cc
2AA	.	.	.	.	.
2D	2r	.	4d	.	1dd
.	.	.	4e	.	.
2D	2D	.	4f	.	.
.	.	.	4d	.	.
=29	=29	=29	=29	=29	=29
1C	1G	1r	2e	0r	0r
.	.	.	4d	.	.
.	.	.	4c	.	.
1E	1G	2r	1B-y	.	.
.	.	2G	.	.	.
=30	=30	=30	=30	=30	=30
1D	1F	1d	2r	0r	0r
.	.	.	2d	.	.
1GG	1G	1d	1g	.	.
=31	=31	=31	=31	=31	=31
0r	1E	1c	1g	0r	2r
.	.	.	.	.	2g
.	1D	1d	1f	.	1dd
=32	=32	=32	=32	=32	=32
0r	0r	1B-y	1g	2r	1dd
.	.	.	.	2d	.
.	.	1A	1e	1a	1cc
=33	=33	=33	=33	=33	=33
0r	2r	0r	2d	1a	1dd
.	2D	.	2.B-y	.	.
.	1G	.	.	1g	1b-y
.	.	.	4c	.	.
.	.	.	4d	.	.
.	.	.	4e	.	.
=34	=34	=34	=34	=34	=34
2r	2F	1r	1f	1a	2a
1F	1A	.	.	.	4f
.	.	.	.	.	4g
.	.	[1c	1r	1f	4a
.	.	.	.	.	4b-y
2F	4G	.	.	.	[2cc
.	4F	.	.	.	.
=35	=35	=35	=35	=35	=35
2.C	0G	2c]	1.g	1e	4cc]
.	.	.	.	.	4b-y
.	.	2c	.	.	2.g
4D	.	.	.	.	.
2E	.	2B-y	.	1r	.
.	.	.	.	.	4a
2E	.	2G	2g	.	4b-y
.	.	.	.	.	4cc
=36	=36	=36	=36	=36	=36
1D	1r	2B-y	2f	0r	0dd
.	.	2B-y	2d	.	.
1D	2r	1A	2f	.	.
.	[2d	.	2f	.	.
=37	=37	=37	=37	=37	=37
0r	2d]	1G	1e	1.g	1r
.	2c	.	.	.	.
.	2B-y	1r	[1d	.	[1dd
.	2G	.	.	2g	.
=38	=38	=38	=38	=38	=38
1r	2B-y	1r	1d]	2f	2dd]
.	2B-y	.	.	2d	2dd
2F	1A	2r	1r	2f	2cc
2F	.	[2c	.	2f	2a
=39	=39	=39	=39	=39	=39
2C	1G	2c]	1.g	1e	2cc
2C	.	2c	.	.	2cc
2G	1r	2B-y	.	1d	4g
.	.	.	.	.	4a
2G	.	2G	2g	.	4b-y
.	.	.	.	.	4cc
=40	=40	=40	=40	=40	=40
1D	1r	2B-y	2f	0r	0dd
.	.	2B-y	2d	.	.
1D	2r	1A	2f	.	.
.	[2d	.	2f	.	.
=41	=41	=41	=41	=41	=41
0r	2d]	1G	1e	2r	1r
.	2c	.	.	1g	.
.	2B-y	1r	[1d	.	2r
.	2G	.	.	2g	2g
=42	=42	=42	=42	=42	=42
0r	1.B-y	0r	1d]	2f	1dd
.	.	.	.	2d	.
.	.	.	1r	2f	1dd
.	2F	.	.	2f	.
=43	=43	=43	=43	=43	=43
2r	2A	0r	0r	1e	1cc
2C	2.G	.	.	.	.
1G	.	.	.	1d	1dd
.	4A	.	.	.	.
.	4B-y	.	.	.	.
.	4c	.	.	.	.
=44	=44	=44	=44	=44	=44
1G	1d	2r	1r	0r	1b-y
.	.	2G	.	.	.
1F	1D	1d	2r	.	1a
.	.	.	2d	.	.
=45	=45	=45	=45	=45	=45
1G	2r	1d	1g	0r	1r
.	1G	.	.	.	.
1E	.	1c	1g	.	2r
.	2G	.	.	.	2g
=46	=46	=46	=46	=46	=46
1D	1A	1d	1f	1r	1dd
1r	1G	1B-y	1g	2r	1dd
.	.	.	.	2d	.
=47	=47	=47	=47	=47	=47
0r	1r	1A	1e	1a	1cc
.	1D	1r	2d	1a	1dd
.	.	.	[2B-y	.	.
=48	=48	=48	=48	=48	=48
1r	1G	0r	4B-]	1g	1b-y
.	.	.	4c	.	.
.	.	.	4d	.	.
.	.	.	4e	.	.
[1F	2F	.	1f	1a	2a
.	[2A	.	.	.	4f
.	.	.	.	.	4g
=49	=49	=49	=49	=49	=49
2F]	2A]	1.c	1r	1f	4a
.	.	.	.	.	4b-y
2F	4G	.	.	.	2.cc
.	4F	.	.	.	.
2.C	[1G	.	[1g	1e	.
.	.	.	.	.	4b-y
.	.	2c	.	.	[2g
4D	.	.	.	.	.
=50	=50	=50	=50	=50	=50
2E	1G]	2B-y	2g]	0r	4g]
.	.	.	.	.	4a
2E	.	2G	2g	.	4b-y
.	.	.	.	.	4cc
1D	1r	2B-y	2f	.	[1dd
.	.	2B-y	2d	.	.
=51	=51	=51	=51	=51	=51
1D	2r	1A	2f	1r	1dd]
.	1d	.	2f	.	.
1r	.	1G	1e	[1g	1r
.	2c	.	.	.	.
=52	=52	=52	=52	=52	=52
0r	2B-y	0r	0d	2g]	1.dd
.	2G	.	.	2g	.
.	2B-y	.	.	2f	.
.	2B-y	.	.	2d	2dd
=53	=53	=53	=53	=53	=53
2F	1A	2r	1r	2f	2cc
2F	.	1c	.	2f	2a
2C	1G	.	[1g	1e	2cc
2C	.	2c	.	.	2cc
=54	=54	=54	=54	=54	=54
2G	0r	2B-y	2g]	1d	4g
.	.	.	.	.	4a
2G	.	2G	2g	.	4b-y
.	.	.	.	.	4cc
1D	.	2B-y	2f	1r	[1dd
.	.	2B-y	2d	.	.
=55	=55	=55	=55	=55	=55
1D	2r	1A	2f	1r	1dd]
.	1d	.	2f	.	.
1r	.	1G	1e	2r	1r
.	2c	.	.	[2g	.
=56	=56	=56	=56	=56	=56
0r	2B-y	0r	0d	2g]	1.dd
.	2G	.	.	2g	.
.	2B-y	.	.	2f	.
.	2B-y	.	.	2d	2dd
=57	=57	=57	=57	=57	=57
2F	1A	2r	0r	2f	2cc
2F	.	1c	.	2f	2a
2C	1G	.	.	1e	2cc
2C	.	2c	.	.	2cc
=58	=58	=58	=58	=58	=58
1.G	0r	2B-y	2r	1d	2g
.	.	2G	2B-y	.	2.b-y
.	.	2B-y	[1d	1r	.
.	.	.	.	.	4a
2G	.	2B-y	.	.	[2g
=59	=59	=59	=59	=59	=59
1D	1F	1A	2d]	1r	4g]
.	.	.	.	.	8f#iL
.	.	.	.	.	8eJ
.	.	.	2d	.	2f#i
1GG	2.B-y	[1G	1d	2r	1g
.	.	.	.	[2g	.
.	4A	.	.	.	.
=60	=60	=60	=60	=60	=60
2C	2G	1G]	1c	2g]	1r
2C	4F	.	.	2g	.
.	4E	.	.	.	.
2D	1D	1r	2r	2f	1d
2BB-y	.	.	2B-y	2d	.
=61	=61	=61	=61	=61	=61
2D	2r	1r	2A	2f	2d
2D	2D	.	2F	2f	2d
1C	2.E	1G	1c	1e	1g
.	4F	.	.	.	.
=62	=62	=62	=62	=62	=62
[0GGl	2G	[0Gl	[0B-yl	[0dl	[0gl
.	4F	.	.	.	.
.	4E	.	.	.	.
.	1G	.	.	.	.
=63	=63	=63	=63	=63	=63
00GG]	00Dl	00G]	00B-]	00d]	00g]
==	==	==	==	==	==
*-	*-	*-	*-	*-	*-
!!!system-decoration: [*]
!!!RDF**kern: i = editorial accidental
!!!RDF**kern: l = terminal long
!!!ENC: Benjamin Ory
!!!END: 2024/5/21
!!!EED: Benjamin Ory
!!!EEV: 2024/05/21
!!!YEC: Copyright 2024 Benjamin Ory, All Rights Reserved
!!!ONB: Translated from MusicXML on 2024/05/21
